X:9501
T:Irish Molly Barn Dance
R:Hornpipe
C:Trad.
O:England after Ireland
Z:Paul Hardy's Possible Tunebook 2015 (see www.paulhardy.net). Creative Commons cc by-nc-sa licenced.
M:4/4
L:1/8
Q:1/4=100
K:G
Bc|"G"d^c de (3dBG (3DGB|"Am"d^c =cA E2 AB|"Am"cB cd (3cAF (3DFA|"G"dc A_B =B2 Bc|
|"G"d^c de (3dBG (3DGB|"C"cd ef g2 fe|"G"dB ed cA FG|"G"(3ABA GF G2:|
|:D2|"Em"ED EF GF GA|"Em"Be e^d e2 (3edA|"G"Dd d^c d=c BA|"G"Gg gf g2 D2|
|"Em"ED EF GF GA|"Em"Be e^d e2 ef|"Em"(3gfe (3fed ed BA|"Em"G2 F2 E2:|
D2|"G"B2B3 B c^c|"G"d2 d3 B AG|"D"F2 A2 d2^c2|"C"c3-c2 D ED|
"C"c2 c3 c Bc|"Em"e2e3 e ^de|"D"f2 e2 A2 ^A2|"G"B3-B2 D ED|
|"G"B2B3 B c^c|"G"d2 d3 B AG|"Em"e2 ^de f2 B2|"Em"g3-g2 g fe|
"G"d2 d3 d ^cd|"Em"e2 E4 FG|"G"B2 A>B c2 BA|Gd (3edB G2|]

